X:1
T:Syncopation (1)
T:Syncopation (1)
T:from Mikrokosmos 1
T:Bartók Béla, Sz. 107
T:1) cf. No. 27 The rhythmic feeling of the suspensions should be emphasized by some energetic movement such as tapping with the foot in the places marked by rhythmic signatures between the staves. 
C:Bartók Béla, Sz. 107
%%score { 1 2 3 }
L:1/8
Q:1/4=96
M:4/4
K:C
V:1 treble nm="Piano"
V:2 perc stafflines=1 nm="Stampfen"
K:none
I:percmap E B 35 normal
V:3 bass nm="Klavier"
V:1
 (C4 D4- | D2 C2 D2 E2 | F4 G4- | G2 F2 E2 D2) | (C4 D2 E2 | F4 E4 | D4) z4 | (E2 F2 E2 D2 | E8- | %9
 E2 D2 E2 F2 | G8- | (G4) F2 E2 | F2 E2 D4 | C8) |] %14
V:2
 x8 | E2 z2 z4 | x8 | E2 z2 z4 | x8 | x8 | x8 | x8 | x8 | E2 z2 z4 | x8 | E2 z2 z4 | x8 | x8 |] %14
V:3
 (C,4 D,4- | D,2 C,2 D,2 E,2 | F,4 G,4- | G,2 F,2 E,2 D,2) | (C,4 D,2 E,2 | F,4 E,4 | D,4) z4 | %7
 (E,2 F,2 E,2 D,2 | E,8- | E,2 D,2 E,2 F,2 | G,8- | (G,4) F,2 E,2 | F,2 E,2 D,4 | C,8) |] %14

